usr/share/icons/biglinux-icons-material-dark/symbolic/status/switch-user-symbolic.svg

<svg width="16" height="16" version="1.1" xmlns="http://www.w3.org/2000/svg">
 <title>Gnome Symbolic Icon Theme</title>
 <path d="m4.5 1a2.5 2.5 0 0 0-2.5 2.5 2.5 2.5 0 0 0 2.5 2.5 2.5 2.5 0 0 0 2.5-2.5 2.5 2.5 0 0 0-2.5-2.5zm0 1a1.5 1.5 0 0 1 1.5 1.5 1.5 1.5 0 0 1-1.5 1.5 1.5 1.5 0 0 1-1.5-1.5 1.5 1.5 0 0 1 1.5-1.5zm7 2a2.5 2.5 0 0 0-2.5 2.5 2.5 2.5 0 0 0 2.5 2.5 2.5 2.5 0 0 0 2.5-2.5 2.5 2.5 0 0 0-2.5-2.5zm0 1a1.5 1.5 0 0 1 1.5 1.5 1.5 1.5 0 0 1-1.5 1.5 1.5 1.5 0 0 1-1.5-1.5 1.5 1.5 0 0 1 1.5-1.5zm-8.5 2c-1.662 0-3 1.338-3 3v2c0 0.554 0.446 1 1 1h5c0-0.34559 0.043352-0.68056 0.125-1h-5.125v-2c0-1.108 0.892-2 2-2h3c0.95754 0 1.7526 0.66642 1.9512 1.5625 0.28806-0.17143 0.60028-0.30907 0.92969-0.4043-0.36208-1.2498-1.5112-2.1582-2.8809-2.1582h-3zm7 3c-1.662 0-3 1.338-3 3v2c0 0.554 0.446 1 1 1h7c0.554 0 1-0.446 1-1v-2c0-1.662-1.338-3-3-3zm0 1h3c1.108 0 2 0.892 2 2v2h-7v-2c0-1.108 0.892-2 2-2z" fill="#dedede"/>
</svg>

<svg xmlns="http://www.w3.org/2000/svg" width="16" height="16">
<path fill="#363636" d="M4.5 1A2.5 2.5 0 0 0 2 3.5 2.5 2.5 0 0 0 4.5 6 2.5 2.5 0 0 0 7 3.5 2.5 2.5 0 0 0 4.5 1m0 1A1.5 1.5 0 0 1 6 3.5 1.5 1.5 0 0 1 4.5 5 1.5 1.5 0 0 1 3 3.5 1.5 1.5 0 0 1 4.5 2m7 2A2.5 2.5 0 0 0 9 6.5 2.5 2.5 0 0 0 11.5 9 2.5 2.5 0 0 0 14 6.5 2.5 2.5 0 0 0 11.5 4m0 1A1.5 1.5 0 0 1 13 6.5 1.5 1.5 0 0 1 11.5 8 1.5 1.5 0 0 1 10 6.5 1.5 1.5 0 0 1 11.5 5M3 7c-1.662 0-3 1.338-3 3v2c0 .554.446 1 1 1h5q.001-.52.125-1H1v-2c0-1.108.892-2 2-2h3c.958 0 1.753.666 1.951 1.563.288-.172.6-.31.93-.405A2.99 2.99 0 0 0 6 7zm7 3c-1.662 0-3 1.338-3 3v2c0 .554.446 1 1 1h7c.554 0 1-.446 1-1v-2c0-1.662-1.338-3-3-3zm0 1h3c1.108 0 2 .892 2 2v2H8v-2c0-1.108.892-2 2-2"/>
</svg>
